X:61
T:Cockle Geordie
Z:Jack Campin, http://www.campin.me.uk/
S:Northumbrian Minstrelsy
M:2/4
L:1/8
K:F
fd`eg   |fd A2|fd`eg   |fd G2 |\
fd`eg   |fd A2|fd`eg   |fd G2:|
FG AB/c/|dc A2|FG AB/c/|dc G2 |\
FG AB/c/|dc A2|FG AB/c/|dc G2:|

